X:473
T:House by the Stream
C:John & Sue Stapledon
L:1/8
M:3/4
R:Waltz
S:Colin Hume's website,  colinhume.com  - chords can also be printed below the stave.
%%MIDI gchord fHIghi
%%MIDI program 73       % Flute
%%MIDI chordprog 46     % Orchestral Harp
%%MIDI bassprog 46      % Orchestral Harp
Q:1/4=112
K:D
P:A
"A7"F EF | "D"D2d2c>d | "G"B3A B/c/d | "D"FB "Em"AF "A7"E>F | "D"D3F EF |\
"D"D2de fe | "Bm"dc BA "G"B/c/d | "D"AF dF ED | "A7"E3F EF |
"D"D2de fe | "Bm"dc BA "G"B/c/d | "Em"ef gf ed | "A7"c>B AG FE |\
"D"D2dG FG | "G"E2ef gd | "Em"c/d/e Ac "A7"ec | "D"d4 "A7"de ||
P:B
"D"f2af ed | "G"g>a gf ed | "Em"e2ge "A7"de | "D"f>g fe dc |\
"Bm"d2fd cd | "G"B2gf ed | "A7"c2ag fe | "D"f>g fe "A7"de |
"D"f2af ed | "G"g>a gfed | "Em"e>f gf ed | "A7"c>B AG FE |\
"D"D2dG F>G | "G"E2ef gd | "Em"c/d/e Ac "A7"ec | "D"d3 |]

